design/Devices/motor_controller.svg

<svg width="24" height="24" viewBox="0 0 24 24"  xmlns="http://www.w3.org/2000/svg">
<path fill-rule="evenodd" clip-rule="evenodd" d="M23 12C23 15.866 19.866 19 16 19C12.4735 19 9.55612 16.3923 9.07089 13H7V14C7 15.1046 6.10457 16 5 16H3C1.89543 16 1 15.1046 1 14V10C1 8.89543 1.89543 8 3 8H5C6.10457 8 7 8.89543 7 10V11H9.07089C9.55612 7.60771 12.4735 5 16 5C19.866 5 23 8.13401 23 12ZM15.2383 15L14.0703 10.8867H14.0352C14.0898 11.5872 14.1172 12.1315 14.1172 12.5195V15H12.75V9.28906H14.8047L15.9961 13.3438H16.0273L17.1953 9.28906H19.2539V15H17.8359V12.4961C17.8359 12.3659 17.8372 12.2214 17.8398 12.0625C17.8451 11.9036 17.8633 11.5143 17.8945 10.8945H17.8594L16.707 15H15.2383Z" />
</svg>

<svg xmlns="http://www.w3.org/2000/svg" width="24" height="24" viewBox="0 0 24 24"><path d="M23,12A7,7,0,0,1,9.07,13H7v1a2,2,0,0,1-2,2H3a2,2,0,0,1-2-2V10A2,2,0,0,1,3,8H5a2,2,0,0,1,2,2v1H9.07A7,7,0,0,1,23,12Zm-7.76,3-1.17-4.11h0c.05.7.08,1.24.08,1.63V15H12.75V9.29H14.8L16,13.34h0L17.2,9.29h2.05V15H17.84V12.06c0-.16,0-.55.05-1.17h0L16.71,15Z" fill-rule="evenodd"/><rect width="24" height="24" fill="none"/></svg>
